X:1
T:Svētā JĀŅA KRISTĪTĀJA dziesma
T:harm. pr. Andris Solims
T:Svētā JĀŅA KRISTĪTĀJA dziesma
C:harm. pr. Andris Solims
%%score [ ( 1 2 ) ( 3 4 ) ]
L:1/8
Q:1/4=120
M:4/4
K:F
V:1 treble nm="Choir" snm="Choir"
V:2 treble 
V:3 bass nm="P2"
V:4 bass 
V:1
!mf!"^Allegro moderato" C4 F2 E2 | D4 C4 | F2 E2 F2 G2 | A4 A4 |"^cresc."!<(! c4 c2!<)! A2 | %5
w: Tavs tēvs tām|zi- ņām|ti- cī- bu nav|li- cis,|3. pēc par|
w: 1. svē- tais|Jā- ni,|vei- do sir- dis|jau- nas,|1. kam tās|
w: Pie ta- va|tē- va|svē- tais eņ- ģel's|nā- ca,|2. tam par|
 B4 A4 | F2 G2 A2 =B2 |!f! c4 c4 |!mf! C4 D2 E2 | F4 F4 | A2 B2 c2 B2 | A4 G4 | %12
w: so- du|drī- zu- mā mēms|ti- cis.|3. kad tu|mums par|lai- mi bi- ji|dzi- mis,|
w: bi- ja|grē- cī- gas un|ļau- nas.|1. šo- dien|līk- smi|vi- si Die- vu|tei- cam|
w: te- vi|de- bess zi- ņas|vā- ca.|2. ta- vu|dzī- vi|vi- su ie- priekš|sa- ka,|
"^rit."!f! A4 B2 A2 |"^dim."!>(! G4!>)! !fermata!F4 |] %14
w: tēvs klu- sēt|ri- mis.|
w: un te- vi|svei- cam.|
w: kurp ve- dīs|ta- ka.|
V:2
 A,4 A,2 A,2 | B,4 A,4 | D2 ^C2 D2 E2 | F4 F4 | (F2 E2) F2 F2 | (F2 E2) F4 | F2 E2 F2 F2 | %7
 (F2 D2) E4 | (C2 B,2) A,2 B,2 | (C2 _E2) (D2 C2) | F2 G2 A2 G2 | F4 E4 | (F2 _E2) D2 F2 | %13
 (F2 =E2) C4 |] %14
V:3
 F,4 F,2 F,2 | (F,2 E,2) F,4 | A,2 A,2 A,2 B,2 | C4 C4 |!<(! (C2 B,2) A,2!<)! C2 | (B,2 C2) C4 | %6
 D2 _D2 C2 =D2 | C4 G,4 | E,4 F,2 G,2 | (A,2 C2) (B,2 A,2) | D2 E2 F2 C2 | (C2 =B,2) C4 | %12
 C4 B,2 C2 |!>(! (D2 C"^"B,)!>)! A,4 |] %14
V:4
 (F,2 E,2) D,2 C,2 | (B,,2 C,2) F,4 | D,2 A,,2 D,2 C,2 | F,4 F,4 | (A,2 G,2) F,2 _E,2 | %5
 (D,2 C,2) (F,2 A,2) | B,2 B,2 A,2 G,2 | C,4 C,4 | C,4 C,2 C,2 | F,4 F,4 | D,2 _D,2 C,2 E,2 | %11
 (F,2 D,2) C,4 | (F,2 ^F,2) G,2 A,2 | ([B,,B,]2 C,2) F,4 |] %14

